app/images/icons/speaker.svg

<svg xmlns="http://www.w3.org/2000/svg" preserveAspectRatio="xMidYMid" width="43.13" height="39.094"><path d="M37.869 21.609v7.126a2.18 2.18 0 01-1.051 1.887 2.09 2.09 0 01-1.081.304c-.358 0-.717-.094-1.046-.283-5.96-3.423-12.407-5.52-19.185-6.244l4.159 11.785c.235.663.14 1.406-.255 1.986a2.1 2.1 0 01-1.731.925h-4.858a2.124 2.124 0 01-1.986-1.428l-4.84-13.723a3.34 3.34 0 01-1.919-2.664H2.715c-1.489 0-2.701-1.244-2.701-2.774V12.41c0-1.529 1.212-2.774 2.701-2.774h1.361c.19-1.658 1.566-2.949 3.231-2.949 0 0 6.628-.03 6.684-.034 7.333-.558 14.298-2.706 20.7-6.383a2.07 2.07 0 012.127.021 2.18 2.18 0 011.052 1.887v7.126c2.964.394 5.262 3.002 5.262 6.152 0 3.151-2.298 5.759-5.263 6.153zM4.052 11.776H2.715a.628.628 0 00-.618.634v6.096c0 .35.278.634.618.634h1.337v-7.364zm8.925-2.949h-5.67c-.646 0-1.171.54-1.171 1.203v10.856c0 .489.285.91.693 1.098.151.066.195.077.403.101.025.002 5.745.004 5.745.004V8.827zm.252 15.402H8.31l4.484 12.708c.003.01.015.018.027.018h4.858c.009 0 .015 0 .024-.013.01-.013.007-.019.004-.028l-4.478-12.685zM35.786 2.178c0-.016 0-.028-.022-.041-.026-.016-.043-.007-.056 0-6.403 3.678-13.345 5.885-20.648 6.571v13.498c7.303.684 14.245 2.892 20.648 6.57.013.007.029.016.056 0 .022-.013.022-.026.022-.041V2.178zm2.084 9.291v7.974c1.81-.373 3.179-2.019 3.179-3.987s-1.369-3.614-3.179-3.987z" fill="#a3bbc8" fill-rule="evenodd"/></svg>

<svg xmlns="http://www.w3.org/2000/svg" xmlns:xlink="http://www.w3.org/1999/xlink" preserveAspectRatio="xMidYMid" width="43.13" height="39.094" viewBox="0 0 43.13 39.094">
  <defs>
    <style>
      .cls-1 {
        fill: #a3bbc8;
        fill-rule: evenodd;
      }
    </style>
  </defs>
  <path d="M37.869,21.609 L37.869,28.735 C37.869,29.520 37.476,30.225 36.818,30.622 C36.481,30.825 36.109,30.926 35.737,30.926 C35.379,30.926 35.020,30.832 34.691,30.643 C28.731,27.220 22.284,25.123 15.506,24.399 L19.665,36.184 C19.900,36.847 19.805,37.590 19.410,38.170 C19.015,38.749 18.368,39.095 17.679,39.095 L12.821,39.095 C11.936,39.095 11.138,38.521 10.835,37.667 L5.995,23.944 C4.963,23.476 4.213,22.473 4.076,21.280 L2.715,21.280 C1.226,21.280 0.014,20.036 0.014,18.506 L0.014,12.410 C0.014,10.881 1.226,9.636 2.715,9.636 L4.076,9.636 C4.266,7.978 5.642,6.687 7.307,6.687 C7.307,6.687 13.935,6.657 13.991,6.653 C21.324,6.095 28.289,3.947 34.691,0.270 C35.362,-0.116 36.157,-0.107 36.818,0.291 C37.476,0.688 37.870,1.393 37.870,2.178 L37.870,9.304 C40.834,9.698 43.132,12.306 43.132,15.456 C43.132,18.607 40.834,21.215 37.869,21.609 ZM4.052,11.776 L2.715,11.776 C2.375,11.776 2.097,12.061 2.097,12.410 L2.097,18.506 C2.097,18.856 2.375,19.140 2.715,19.140 L4.052,19.140 L4.052,11.776 ZM12.977,8.827 L7.307,8.827 C6.661,8.827 6.136,9.367 6.136,10.030 L6.136,20.886 C6.136,21.375 6.421,21.796 6.829,21.984 C6.980,22.050 7.024,22.061 7.232,22.085 C7.257,22.087 12.977,22.089 12.977,22.089 L12.977,8.827 ZM13.229,24.229 L8.310,24.229 L12.794,36.937 C12.797,36.947 12.809,36.955 12.821,36.955 L17.679,36.955 C17.688,36.955 17.694,36.955 17.703,36.942 C17.713,36.929 17.710,36.923 17.707,36.914 L13.229,24.229 ZM35.786,2.178 C35.786,2.162 35.786,2.150 35.764,2.137 C35.738,2.121 35.721,2.130 35.708,2.137 C29.305,5.815 22.363,8.022 15.060,8.708 L15.060,22.206 C22.363,22.890 29.305,25.098 35.708,28.776 C35.721,28.783 35.737,28.792 35.764,28.776 C35.786,28.763 35.786,28.750 35.786,28.735 L35.786,2.178 ZM37.870,11.469 L37.870,19.443 C39.680,19.070 41.049,17.424 41.049,15.456 C41.049,13.488 39.680,11.842 37.870,11.469 Z" class="cls-1"/>
</svg>
